svg/fluentui-system-icons/ic_fluent_channel_share_16_regular.svg

<svg width="16" height="16" viewBox="0 0 16 16" fill="none" xmlns="http://www.w3.org/2000/svg">
<path d="M1 3.5C1 2.11929 2.11929 1 3.5 1H7.5C8.88071 1 10 2.11929 10 3.5V4H9V3.5C9 2.67157 8.32843 2 7.5 2H3.5C2.67157 2 2 2.67157 2 3.5V7.5C2 8.32843 2.67157 9 3.5 9H9.08535C9.29127 8.4174 9.84689 8 10.5 8C11.3284 8 12 8.67157 12 9.5C12 10.3284 11.3284 11 10.5 11C9.84689 11 9.29127 10.5826 9.08535 10H3.5C2.11929 10 1 8.88071 1 7.5V3.5ZM10 9.5C10 9.77614 10.2239 10 10.5 10C10.7761 10 11 9.77614 11 9.5C11 9.22386 10.7761 9 10.5 9C10.2239 9 10 9.22386 10 9.5ZM6 11V11.5C6 12.8807 7.11929 14 8.5 14H12.5C13.8807 14 15 12.8807 15 11.5V7.5C15 6.11929 13.8807 5 12.5 5H6.91465C6.70873 4.4174 6.15311 4 5.5 4C4.67157 4 4 4.67157 4 5.5C4 6.32843 4.67157 7 5.5 7C6.15311 7 6.70873 6.5826 6.91465 6H12.5C13.3284 6 14 6.67157 14 7.5V11.5C14 12.3284 13.3284 13 12.5 13H8.5C7.67157 13 7 12.3284 7 11.5V11H6ZM5.5 5C5.77614 5 6 5.22386 6 5.5C6 5.77614 5.77614 6 5.5 6C5.22386 6 5 5.77614 5 5.5C5 5.22386 5.22386 5 5.5 5Z" fill="#212121"/>
</svg>

<svg xmlns="http://www.w3.org/2000/svg" width="16" height="16"><path d="M1 3.5A2.5 2.5 0 0 1 3.5 1h4A2.5 2.5 0 0 1 10 3.5V4H9v-.5A1.5 1.5 0 0 0 7.5 2h-4A1.5 1.5 0 0 0 2 3.5v4A1.5 1.5 0 0 0 3.5 9h5.585a1.5 1.5 0 1 1 0 1H3.5A2.5 2.5 0 0 1 1 7.5v-4Zm9 6a.5.5 0 1 0 1 0 .5.5 0 0 0-1 0ZM6 11v.5A2.5 2.5 0 0 0 8.5 14h4a2.5 2.5 0 0 0 2.5-2.5v-4A2.5 2.5 0 0 0 12.5 5H6.915a1.5 1.5 0 1 0 0 1H12.5A1.5 1.5 0 0 1 14 7.5v4a1.5 1.5 0 0 1-1.5 1.5h-4A1.5 1.5 0 0 1 7 11.5V11H6Zm-.5-6a.5.5 0 1 1 0 1 .5.5 0 0 1 0-1Z"/></svg>
